images/logo.svg

<svg width="40" height="30" viewBox="0 0 40 30" fill="none" xmlns="http://www.w3.org/2000/svg">
<path d="M17.7663 0.172852L13.8159 2.46994L22.9576 7.78842L13.1127 13.4794L3.97104 8.16092L0 10.4373L9.18304 15.7765V27.5102L11.1686 26.5376L13.1334 29.828V18.0115L26.8873 10.0648L36.0496 15.3833L40 13.1069L17.7663 0.172852Z" fill="#F6F7F9"/>
<path d="M14.8087 19.0461L22.2337 23.3712L26.1841 21.0741L18.7798 16.7697L14.8087 19.0461Z" fill="#F6F7F9"/>
</svg>

<svg width="40" height="30" fill="none" xmlns="http://www.w3.org/2000/svg"><path d="M17.766.173l-3.95 2.297 9.142 5.318-9.845 5.691L3.97 8.161 0 10.437l9.183 5.34V27.51l1.986-.972 1.964 3.29V18.012l13.754-7.947 9.163 5.318L40 13.107 17.766.173z" fill="#F6F7F9"/><path d="M14.809 19.046l7.425 4.325 3.95-2.297-7.404-4.304-3.971 2.276z" fill="#F6F7F9"/></svg>
